X:1
T: Mayen House
C:Alexander Walker
R:Jig
Q:180
K:Gm
M:6/8
L:1/16
D4G2 G4F2|G2A2B2 d4g2|B2c2d2 c2B2A2|F6F4z2|D4G2 G4F2|B2c2d2 g4f2|d2c2B2 c2d2A2|B4G2G4z2|
D4G2 G4F2|G2A2B2 d4g2|B2c2d2 c2B2A2|F6F4z2|D4G2 G4F2|B2c2d2 g4f2|d2c2B2 c2d2A2|B4G2G4z2|
G4g2 g2f2g2|b2a2g2 a4f2|F4f2 f2=e2f2|a2g2f2 d4c2|d4g2 g2f2g2|b2a2g2 a2g2f2|d2f2d2 c2A2F2|B4G2G4z2|
G4g2 g2f2g2|b2a2g2 a4f2|F4f2 f2=e2f2|a2g2f2 d4c2|b2a2g2 a2g2f2|g2f2e2 d2c2B2|d2f2d2 c2A2F2|B4G2G4||
